X: 1
T: the Mist-Covered Mountain
T: the Mist on the Mountain
R: Jig
Z: John Chambers <jc:trillian.mit.edu>
S: handout at Roaring Jelly practice 2016-3-24
M: 6/8
L: 1/8
K: ADor
E "A"|\
| "Am"EAA ABd | e2A AGE | "G"G3 GAB | dBA GED |
| "Am"EAA ABd | e2A AGE | "C"efg "G"dBG | "Em"BAG "Am"A3 :|
a "B"|\
|: "Am"age a2b | age edB | "G"AGE G2A | BAB GED |
|[1 "Am"age a2b | age edB | "G"AGE G2A | BAG "Am"A3 :|
|[2 "Am"EDE G2A | "G"BAG ABd | "C"efg "G"dBG | "Em"BAG "Am"A2 |]
